packages/components/icon/src/assets/icons/add-in-circle.svg

<svg width="24" height="24" viewBox="0 0 24 24" fill="none" xmlns="http://www.w3.org/2000/svg">
<path fill-rule="evenodd" clip-rule="evenodd" d="M12.1116 3C13.7603 3 15.2825 3.40857 16.6782 4.22572C18.0739 5.04288 19.1803 6.14927 19.9974 7.54494C20.8146 8.94061 21.2231 10.4628 21.2231 12.1116C21.2231 13.7603 20.8146 15.2825 19.9974 16.6782C19.1803 18.0739 18.0739 19.1803 16.6782 19.9974C15.2825 20.8146 13.7603 21.2231 12.1116 21.2231C10.4628 21.2231 8.94061 20.8146 7.54494 19.9974C6.14927 19.1803 5.04288 18.0739 4.22572 16.6782C3.40857 15.2825 3 13.7603 3 12.1116C3 10.4628 3.40857 8.94061 4.22572 7.54494C5.04288 6.14927 6.14927 5.04288 7.54494 4.22572C8.94061 3.40857 10.4628 3 12.1116 3ZM11.3309 6.60126C11.2152 6.60126 11.1176 6.64103 11.038 6.72058C10.9585 6.80012 10.9187 6.89774 10.9187 7.01345V10.9184H7.01375C6.89805 10.9184 6.80043 10.9582 6.72088 11.0377C6.64133 11.1173 6.60156 11.2077 6.60156 11.3089V12.8926C6.60156 12.9938 6.64495 13.0878 6.73173 13.1746C6.81851 13.2614 6.91251 13.3048 7.01375 13.3048H10.9187V17.2097C10.9187 17.3254 10.9585 17.4194 11.038 17.4918C11.1176 17.5641 11.2152 17.6002 11.3309 17.6002H12.8929C13.0086 17.6002 13.1062 17.5605 13.1858 17.4809C13.2653 17.4014 13.3051 17.311 13.3051 17.2097V13.3048H17.21C17.3113 13.3048 17.4017 13.265 17.4812 13.1855C17.5608 13.1059 17.6005 13.0083 17.6005 12.8926V11.3089C17.6005 11.1932 17.5644 11.0992 17.4921 11.0269C17.4197 10.9546 17.3257 10.9184 17.21 10.9184H13.3051V7.01345C13.3051 6.89774 13.2653 6.80012 13.1858 6.72058C13.1062 6.64103 13.0086 6.60126 12.8929 6.60126H11.3309Z" fill="currentColor"/>
</svg>

<svg viewBox="0 0 24 24" fill="none" xmlns="http://www.w3.org/2000/svg"><path fill-rule="evenodd" clip-rule="evenodd" d="M12.112 3a8.88 8.88 0 0 1 4.566 1.226 9.13 9.13 0 0 1 3.32 3.319 8.877 8.877 0 0 1 1.225 4.567 8.87 8.87 0 0 1-1.226 4.566 9.13 9.13 0 0 1-3.319 3.32 8.877 8.877 0 0 1-4.566 1.225 8.877 8.877 0 0 1-4.567-1.226 9.13 9.13 0 0 1-3.32-3.319A8.878 8.878 0 0 1 3 12.112c0-1.65.409-3.171 1.226-4.567a9.13 9.13 0 0 1 3.319-3.32A8.878 8.878 0 0 1 12.112 3Zm-.781 3.601a.398.398 0 0 0-.293.12.398.398 0 0 0-.12.292v3.905H7.015a.398.398 0 0 0-.293.12c-.08.08-.12.17-.12.27v1.585a.4.4 0 0 0 .13.282c.088.086.182.13.283.13h3.905v3.905c0 .115.04.21.119.282a.42.42 0 0 0 .293.108h1.562c.116 0 .213-.04.293-.12a.37.37 0 0 0 .12-.27v-3.905h3.904c.101 0 .192-.04.271-.12.08-.08.12-.177.12-.292v-1.584a.381.381 0 0 0-.109-.282.382.382 0 0 0-.282-.109h-3.905V7.013a.398.398 0 0 0-.12-.292.398.398 0 0 0-.292-.12H11.33Z" fill="currentColor"/></svg>
